!!!SOCIAL_FUNCTION:	love songs
!!!PDT:	1909
!!!OTL: No_166_I_Am_Going_Away.krn
!!!REG: Great_Lakes
!!!LANG: Non-Tone
!!!LING_GROUP: Algonquin
**kern
*staff1
=1-
*clefF4
*k[b-e-]
*M3/4
dq/
4d\
8d\L
8d\J
12d\L
12en\
12f\J
=2||
*M2/4
4.d\
8d\
=3||
*M3/4
4d\
8c\L
8B-\J
12c\L
12c\
12B-\J
=4||
*M2/4
4.G\
8G\
=5||
*M3/4
4G\
8G\L
8G\J
12A\L
12A\
12B-\J
=6||
*M2/4
4.G\
8G\
=7
4d\
24e-\LL
24d\J
12c\
12B-\J
=8
4G\
16A\LL
16A\
16B-\
16B-\JJ
=9
4.G\
16D\LL
16D\JJ
=10||
*M3/4
4.G\
16G\LL
16G\JJ
12F\L
12F\
12F\J
=11||
*M2/4
2D\
=12||
*M3/4
4.D\
8C/
8BB-/
24C/LL
24C/
24BB-/JJ
=13||
*M2/4
4.GG/
8d\
=14||
*M3/4
4d\
8d\L
8d\J
8e-\L
16f\L
16f\JJ
=15||
*M2/4
4.d\
8d\
=16
8.c\L
16B-\Jk
8G\
24A\LL
24A\
24B-\JJ
=17
4.G\
8G\
=18
4G\
8G\L
[8G\J
=19
4G\]
8r
16d\LL
16d\JJ
=20
8.c\L
16d\Jk
16B-\LK
8.G\J
=21
8.G\
48A\LLL
48G\
48F\JJJ
8.D\L
16D\Jk
=22
8.C/L
16D/Jk
16BB-/LK
8.GG/J
=23
2GG/
==
*-
